src/components/footer/img/phone.svg

<svg width="23" height="23" viewBox="0 0 23 23" fill="none" xmlns="http://www.w3.org/2000/svg">
<g clip-path="url(#clip0)">
<path d="M15.9654 15.215C15.2793 14.4731 14.4228 14.4731 13.7411 15.215C13.2211 15.7797 12.701 16.3445 12.1898 16.9188C12.0499 17.0767 11.9319 17.1102 11.7615 17.005C11.425 16.8039 11.0667 16.6412 10.7433 16.421C9.23571 15.3825 7.97281 14.0472 6.85412 12.5443C6.29914 11.7977 5.80534 10.9984 5.46012 10.0986C5.3902 9.91676 5.40331 9.79711 5.53877 9.64874C6.05879 9.09834 6.5657 8.53358 7.07698 7.96883C7.78927 7.18391 7.78927 6.26498 7.07261 5.47528C6.66621 5.02539 6.25981 4.58507 5.85341 4.13517C5.4339 3.67571 5.01876 3.21146 4.59488 2.75678C3.9088 2.02451 3.0523 2.02451 2.3706 2.76157C1.84621 3.32633 1.34367 3.90544 0.810541 4.46063C0.316742 4.97274 0.0676576 5.59972 0.0152187 6.33199C-0.0678094 7.52372 0.198755 8.64845 0.574566 9.74446C1.34367 12.0131 2.5148 14.028 3.93502 15.8754C5.85341 18.3738 8.14324 20.3504 10.822 21.7767C12.0281 22.418 13.2779 22.911 14.6369 22.9923C15.5721 23.0498 16.3849 22.7913 17.036 21.992C17.4817 21.4464 17.9843 20.9487 18.4562 20.427C19.1554 19.6517 19.1598 18.7136 18.4649 17.9478C17.6347 17.0337 16.8 16.1243 15.9654 15.215Z" fill="white"/>
<path d="M15.1305 11.4005L16.743 11.0989C16.4896 9.47645 15.7904 8.00713 14.7285 6.83932C13.6054 5.6093 12.1852 4.83395 10.6208 4.59465L10.3936 6.37029C11.604 6.55694 12.7052 7.1552 13.5748 8.10763C14.3964 9.00742 14.9339 10.1465 15.1305 11.4005Z" fill="white"/>
<path d="M17.6522 3.72357C15.7906 1.6847 13.4352 0.397245 10.8351 0L10.6079 1.77564C12.854 2.12023 14.8904 3.23539 16.4985 4.99188C18.0236 6.66223 19.0243 8.77289 19.387 11.0941L20.9995 10.7926C20.5756 8.10284 19.4176 5.66194 17.6522 3.72357Z" fill="white"/>
</g>
<defs>
<clipPath id="clip0">
<rect width="23" height="23" fill="white"/>
</clipPath>
</defs>
</svg>

<svg width="23" height="23" fill="none" xmlns="http://www.w3.org/2000/svg" viewBox="0 0 23 23">
  <g clip-path="url(#clip0)" fill="#fff">
    <path d="M15.965 15.215c-.686-.742-1.542-.742-2.224 0-.52.565-1.04 1.13-1.551 1.704-.14.158-.258.191-.428.086-.337-.201-.695-.364-1.019-.584-1.507-1.038-2.77-2.374-3.889-3.877-.555-.746-1.049-1.546-1.394-2.445-.07-.182-.057-.302.079-.45.52-.55 1.027-1.115 1.538-1.68.712-.785.712-1.704-.004-2.494-.407-.45-.813-.89-1.22-1.34-.42-.46-.834-.924-1.258-1.378-.686-.732-1.543-.732-2.224.005-.525.564-1.027 1.143-1.56 1.699C.317 4.973.068 5.6.015 6.332-.068 7.524.2 8.648.575 9.744c.769 2.27 1.94 4.284 3.36 6.131 1.918 2.499 4.208 4.475 6.887 5.902 1.206.641 2.456 1.134 3.815 1.215.935.058 1.748-.2 2.399-1 .446-.546.948-1.043 1.42-1.565.7-.775.704-1.713.009-2.48-.83-.913-1.665-1.823-2.5-2.732zM15.13 11.4l1.613-.301a8.171 8.171 0 00-2.014-4.26c-1.124-1.23-2.544-2.005-4.108-2.244l-.227 1.775c1.21.187 2.311.785 3.18 1.738.822.9 1.36 2.038 1.556 3.292zM17.652 3.724C15.791 1.684 13.435.397 10.835 0l-.227 1.776c2.246.344 4.282 1.46 5.89 3.216 1.526 1.67 2.526 3.78 2.889 6.102L21 10.793c-.424-2.69-1.582-5.131-3.348-7.07z"/>
  </g>
  <defs>
    <clipPath id="clip0">
      <path fill="#fff" d="M0 0h23v23H0z"/>
    </clipPath>
  </defs>
</svg>
